X: 89
T:Untitled. HA.088
M:3/2
Q:180
C:in Hand C
S:Henry Atkinson's original MS,Hartburn,N'umberland,1694.
O:England
A:Hartburn,Northumberland
H:1/4
Z:vmp.Chris Partington.Jan.2004
K:Bb
B2d2g2|fd2cc(B/A/)|B>A (B/c/) d(c/d/)e|fd2c/B/AG:|!
|:g2ga/b/ag/f/|g(dcB)g2|Bc2de2|(d/c/)(d/A/)BG"#"ED|!
DA2(B/c/)(B/A/)(B/G/)|ce2fd2|(g/f/)(g/d/)cBcd|BA2G^F2:|]
